src/components/Icon/svg-icon/main/mouse.svg

<svg xmlns="http://www.w3.org/2000/svg" xmlns:xlink="http://www.w3.org/1999/xlink" width="24" height="24" viewBox="0 0 24 24">
  <defs>
    <path id="mouse-a" d="M17.338852,13.9433409 L14.5720537,9.94203844 C14.253615,9.47834351 13.8525685,9.0928052 13.3689021,8.78541193 C12.8852357,8.47801867 12.3670294,8.26180461 11.8142679,8.13676329 C11.255498,8.0065119 10.680214,7.96873957 10.0883986,8.02344515 C9.49658318,8.07815073 8.93031145,8.23314755 8.38956642,8.48844026 C8.27540913,8.30608833 8.17026584,8.12764661 8.07413339,7.95310975 C7.97800094,7.7785729 7.8968904,7.60794615 7.83079934,7.44122438 C7.7587,7.2745026 7.70462631,7.11169082 7.66857664,6.95278413 C7.63252697,6.79387744 7.61450241,6.64148561 7.61450241,6.49560406 C7.61450241,6.36014262 7.62501674,6.21686825 7.64604571,6.06577664 C7.66707469,5.91468504 7.70762995,5.76880567 7.76771274,5.62813418 C7.82178724,5.48746268 7.89989368,5.35981824 8.00203441,5.24519703 C8.10417514,5.13057581 8.23635528,5.03940121 8.39857879,4.97167049 C8.41059535,4.96646043 8.42411377,4.95994796 8.43913447,4.95213288 C8.45415516,4.94431779 8.47067768,4.93520033 8.48870251,4.92478022 C8.50672735,4.91957017 8.52475191,4.91045271 8.54277675,4.89742757 C8.56080158,4.88440243 8.57882614,4.87007499 8.59685098,4.85444483 C8.65693376,4.80755433 8.70049312,4.75284957 8.72753038,4.69032891 C8.75456763,4.62780824 8.76808605,4.56528851 8.76808605,4.50276785 C8.76808605,4.43503713 8.75456763,4.37121491 8.72753038,4.31129927 C8.70049312,4.25138364 8.65693376,4.19537638 8.59685098,4.14327583 C8.54878475,4.10680544 8.49621311,4.07554558 8.43913447,4.0494953 C8.38205582,4.02344502 8.32347599,4.00781509 8.26339321,4.00260504 C8.19730215,3.99739498 8.13421617,3.99999997 8.07413339,4.01042008 C8.01405061,4.02084019 7.95697282,4.03907511 7.90289832,4.06512539 C7.66857547,4.16411644 7.46129298,4.29045839 7.28104464,4.44415502 C7.10079629,4.59785165 6.95059159,4.77889836 6.83042603,4.98730058 C6.71026046,5.19049273 6.6186356,5.41973173 6.55554867,5.67502444 C6.49246175,5.93031715 6.46091877,6.20384096 6.46091877,6.49560406 C6.46091877,6.69879622 6.48495152,6.90589281 6.53301774,7.11690005 C6.58108397,7.32790729 6.64717404,7.54021386 6.73128993,7.75382613 C6.82141411,7.97264846 6.9265574,8.19276999 7.04672296,8.41419735 C7.16688852,8.6356247 7.30207275,8.85835122 7.45227971,9.0823836 C7.06174163,9.40019698 6.7478138,9.75968541 6.51048681,10.1608597 C6.27315983,10.5620339 6.11844898,10.9840421 6.04634965,11.4268968 C5.97425031,11.8645414 5.98626668,12.3099945 6.08239913,12.7632693 C6.17853159,13.2165441 6.3707936,13.6463672 6.65919096,14.0527516 L9.42598922,18.0540541 C9.64228724,18.3666574 9.89613318,18.6440887 10.1875347,18.8863562 C10.4789362,19.1286238 10.7958681,19.3331154 11.1383399,19.4998372 C11.4868201,19.6613489 11.8503155,19.7850859 12.228837,19.8710518 C12.6073585,19.9570177 12.9918825,20 13.3824206,20 C13.5867021,20 13.7894784,19.9882776 13.9907557,19.9648323 C14.1920331,19.9413871 14.3948094,19.9062197 14.5990909,19.8593292 C14.797364,19.8124387 14.9926302,19.7538265 15.1848951,19.6834907 C15.37716,19.613155 15.5664179,19.5284928 15.7526745,19.4295018 C16.2994278,19.1429487 16.751544,18.7860653 17.1090365,18.3588408 C17.4665291,17.9316162 17.7173709,17.4679283 17.8615696,16.9677629 C18.0057683,16.4728077 18.0373113,15.9635324 17.9561995,15.4399219 C17.8750878,14.9163113 17.6693073,14.417456 17.338852,13.9433409 Z M11.5078472,13.3025073 C11.4657893,13.3285576 11.4237319,13.3493975 11.381674,13.3650277 C11.339616,13.3806579 11.2975587,13.3936828 11.2555008,13.4041029 C11.2074346,13.414523 11.1608711,13.4236405 11.115809,13.4314556 C11.0707469,13.4392706 11.0241835,13.4431781 10.9761172,13.4431781 C10.8980096,13.4431781 10.8184011,13.4340607 10.7372894,13.4158255 C10.6561776,13.3975903 10.5795732,13.3702379 10.5074739,13.3337675 C10.4353745,13.3025072 10.3677824,13.2621299 10.3046955,13.2126343 C10.2416086,13.1631388 10.1860329,13.1071316 10.1379666,13.0446109 L8.81314791,11.2315207 C8.74104857,11.1325296 8.69448512,11.0270276 8.67345614,10.9150114 C8.65242717,10.8029952 8.65693331,10.6948882 8.6869747,10.5906871 C8.71100781,10.4812759 8.76057537,10.3796814 8.83567884,10.2859004 C8.91078232,10.1921194 9.00541128,10.1139697 9.11956857,10.0514491 C9.23372585,9.98371833 9.35539166,9.94073602 9.48456964,9.92250083 C9.61374762,9.90426563 9.74142162,9.90817312 9.86759546,9.93422339 C9.9937693,9.96027367 10.110929,10.0045585 10.219078,10.0670791 C10.327227,10.1295998 10.4173498,10.2103545 10.4894491,10.3093455 L11.8142679,12.1146207 C11.8863672,12.2188218 11.9329307,12.3269288 11.9539596,12.438945 C11.9749886,12.5509612 11.9734866,12.6590682 11.9494534,12.7632693 C11.919412,12.8726805 11.8668404,12.974275 11.7917369,13.068056 C11.7166334,13.161837 11.6220045,13.2399867 11.5078472,13.3025073 Z"/>
  </defs>
  <use fill="#677078" xlink:href="#mouse-a"/>
</svg>

<svg xmlns="http://www.w3.org/2000/svg" xmlns:xlink="http://www.w3.org/1999/xlink" width="24" height="24"><defs><path id="a" d="M17.339 13.943l-2.767-4.001a4.13 4.13 0 00-1.203-1.157 4.89 4.89 0 00-1.555-.648 5.375 5.375 0 00-1.726-.114 5.035 5.035 0 00-1.698.465c-.115-.182-.22-.36-.316-.535a4.505 4.505 0 01-.243-.512 2.785 2.785 0 01-.162-.488 2.066 2.066 0 01-.054-.457c0-.136.01-.28.031-.43a1.71 1.71 0 01.122-.438 1.24 1.24 0 01.234-.383c.102-.114.234-.206.397-.273a.645.645 0 00.09-.047.177.177 0 00.054-.028.78.78 0 00.054-.043.419.419 0 00.13-.164.47.47 0 000-.379.494.494 0 00-.13-.168.83.83 0 00-.158-.094.531.531 0 00-.176-.046.757.757 0 00-.189.007.647.647 0 00-.171.055 2.375 2.375 0 00-.622.38 2.06 2.06 0 00-.45.542 2.54 2.54 0 00-.275.688 3.412 3.412 0 00-.095.82c0 .204.024.41.072.622.048.21.114.423.198.637.09.219.196.439.316.66.12.222.255.444.405.668-.39.318-.704.678-.942 1.079a3.582 3.582 0 00-.428 2.602c.097.454.289.883.577 1.29l2.767 4.001c.216.313.47.59.762.832.29.243.608.447.95.614.349.161.712.285 1.09.371a5.192 5.192 0 001.763.094 5.16 5.16 0 001.194-.281c.192-.07.381-.156.568-.254a4.411 4.411 0 001.356-1.071c.358-.427.608-.891.753-1.391a3.489 3.489 0 00.094-1.528 3.548 3.548 0 00-.617-1.497zm-5.831-.64a.71.71 0 01-.126.062 1.17 1.17 0 01-.266.066.816.816 0 01-.14.012 1.087 1.087 0 01-.469-.11.921.921 0 01-.369-.288l-1.325-1.813a.777.777 0 01-.14-.317.693.693 0 01.014-.324.736.736 0 01.149-.305.932.932 0 01.284-.235.976.976 0 01.365-.128c.129-.019.256-.015.383.011.126.026.243.07.351.133a.867.867 0 01.27.242l1.325 1.806a.84.84 0 01.14.324c.021.112.02.22-.005.324a.84.84 0 01-.157.305.932.932 0 01-.284.235z"/></defs><use fill="#677078" xlink:href="#a"/></svg>
